X: 1
T: The 1798 March
P: piffero primo a0762
O: trad Irish
%R: march
F: http://ancients.sudburymuster.org/mus/sng/pdf/1798C0.pdf
Z: 2020 John Chambers <jc:trillian.mit.edu>
M: 4/4
L: 1/8
K: D
de |\
f2ed B2dB | AFAB A2de | f2ed B2dB | Aee>f eAde |\
f2ed B2dB |
AFAB A2de | f2ed BAFA | d2dc d2 :: fg |\
a2fe d>efd | ef/e/de f2df |
a2fe d>efd | e2e>f eAde |\
f2ed B2dB | AFAB A2de | f2ed BAFA | d2dc d2 :|


